resources/haticons/SVG/bancontact.svg

<!-- Generated by IcoMoon.io -->
<svg version="1.1" xmlns="http://www.w3.org/2000/svg" width="24" height="24" viewBox="0 0 24 24">
<title>bancontact</title>
<path fill="#005498" d="M21.385 9.768h-7.074l-4.293 5.022h-8.461l2.283-2.69h-2.718c-0.617 0-1.122 0.516-1.122 1.15v2.428c0 0.633 0.505 1.15 1.122 1.15h12.933c0.617 0 1.46-0.384 1.874-0.854l5.425-6.171zM20.262 11.047l-0.751 0.855zM22.878 7.172h-12.896c-0.617 0-1.462 0.384-1.876 0.853l-5.49 6.208h7.047l4.368-5.020h8.424l-2.263 2.689h2.686c0.617 0 1.122-0.518 1.122-1.151v-2.428c0-0.633-0.505-1.15-1.122-1.151zM21.008 10.196l-0.474 0.541z"></path>
</svg>

<svg xmlns="http://www.w3.org/2000/svg" width="24" height="24"><path fill="#005498" d="M21.385 9.768h-7.074l-4.293 5.022H1.557L3.84 12.1H1.122C.505 12.1 0 12.616 0 13.25v2.428c0 .633.505 1.15 1.122 1.15h12.933c.617 0 1.46-.384 1.874-.854l5.425-6.171zm-1.123 1.279l-.751.855zm2.616-3.875H9.982c-.617 0-1.462.384-1.876.853l-5.49 6.208h7.047l4.368-5.02h8.424l-2.263 2.689h2.686c.617 0 1.122-.518 1.122-1.151V8.323c0-.633-.505-1.15-1.122-1.151zm-1.87 3.024l-.474.541z"/></svg>
